lib/brands/logos/spotify.svg

<svg xmlns="http://www.w3.org/2000/svg" fill="none" aria-hidden="true" viewBox="0 0 182 64"><g id="Spotify"><path id="Vector" fill="#1ED760" d="M30.4785 5.922C16.1589 5.922 4.54999 17.5306 4.54999 31.8502C4.54999 46.1704 16.1589 57.778 30.4785 57.778C44.7996 57.778 56.4073 46.1704 56.4073 31.8502C56.4073 17.5315 44.7996 5.92324 30.4782 5.92324L30.4785 5.922V5.922ZM42.3691 43.3179C41.9047 44.0795 40.9077 44.321 40.146 43.8535C34.0583 40.135 26.3946 39.2928 17.3692 41.3549C16.4995 41.553 15.6325 41.0081 15.4344 40.1381C15.2353 39.268 15.778 38.4011 16.6499 38.203C26.5268 35.9464 34.9989 36.918 41.8335 41.0948C42.5951 41.5623 42.8366 42.5562 42.3691 43.3179V43.3179ZM45.5427 36.2579C44.9575 37.2091 43.7129 37.5094 42.7623 36.9242C35.7928 32.6403 25.1688 31.3997 16.9252 33.902C15.8561 34.225 14.7269 33.6224 14.4024 32.5552C14.0804 31.4861 14.6832 30.359 15.7505 30.0339C25.1669 27.1768 36.8734 28.5608 44.877 33.4791C45.8276 34.0643 46.1279 35.3089 45.5427 36.2582V36.2579ZM45.8152 28.9063C37.4585 23.9428 23.6712 23.4864 15.6926 25.908C14.4114 26.2965 13.0565 25.5733 12.6682 24.292C12.28 23.0102 13.0026 21.6563 14.2847 21.2668C23.4436 18.4864 38.6691 19.0236 48.2903 24.7351C49.4452 25.4191 49.8229 26.9074 49.1386 28.0583C48.4575 29.2107 46.9651 29.5906 45.8164 28.9063H45.8152ZM75.0928 29.8575C70.6157 28.7899 69.82 28.0406 69.82 26.4662C69.82 24.9788 71.2195 23.9778 73.3032 23.9778C75.3219 23.9778 77.3221 24.7379 79.4213 26.3027C79.4832 26.3501 79.5637 26.369 79.6411 26.3566C79.7216 26.3448 79.7897 26.3018 79.8362 26.2371L82.0221 23.1557C82.1119 23.0288 82.0871 22.8539 81.9664 22.757C79.4677 20.7528 76.6564 19.7784 73.3682 19.7784C68.5351 19.7784 65.1571 22.6792 65.1571 26.8297C65.1571 31.2805 68.0706 32.8564 73.105 34.0729C77.3871 35.0597 78.1116 35.8864 78.1116 37.3639C78.1116 39.0018 76.6502 40.0204 74.2971 40.0204C71.6839 40.0204 69.5506 39.138 67.1665 37.0759C67.1077 37.0233 67.0272 37.0016 66.9529 37.0047C66.8724 37.0109 66.8012 37.0481 66.7517 37.1069L64.2995 40.0235C64.1973 40.1474 64.2097 40.3269 64.3273 40.4322C67.1015 42.9092 70.5135 44.2158 74.198 44.2158C79.4058 44.2158 82.7714 41.3704 82.7714 36.9645C82.7807 33.2469 80.5545 31.1879 75.1021 29.8615L75.0928 29.8575V29.8575ZM94.5555 25.4423C92.2984 25.4423 90.4469 26.3315 88.9173 28.1536V26.1027C88.9173 25.9408 88.7873 25.8089 88.6263 25.8089H84.6167C84.4557 25.8089 84.3257 25.9408 84.3257 26.1027V48.891C84.3257 49.052 84.4557 49.1852 84.6167 49.1852H88.6263C88.7873 49.1852 88.9173 49.052 88.9173 48.891V41.6986C90.4469 43.4108 92.2984 44.2498 94.5555 44.2498C98.7509 44.2498 102.999 41.0205 102.999 34.847C103.005 28.6722 98.757 25.442 94.5586 25.442L94.5555 25.4423ZM98.336 34.847C98.336 37.9893 96.4008 40.1845 93.6267 40.1845C90.8865 40.1845 88.8183 37.8902 88.8183 34.847C88.8183 31.8034 90.8865 29.5098 93.6267 29.5098C96.3544 29.5094 98.336 31.7536 98.336 34.8467V34.847ZM113.882 25.4423C108.479 25.4423 104.247 29.6023 104.247 34.9142C104.247 40.169 108.451 44.2839 113.817 44.2839C119.238 44.2839 123.483 40.1381 123.483 34.847C123.483 29.5738 119.266 25.4429 113.882 25.4429V25.4423V25.4423ZM113.882 40.2155C111.009 40.2155 108.841 37.9057 108.841 34.8454C108.841 31.7712 110.934 29.5404 113.817 29.5404C116.709 29.5404 118.889 31.8492 118.889 34.9126C118.889 37.9862 116.783 40.2155 113.882 40.2155V40.2155ZM135.02 25.8089H130.608V21.299C130.608 21.1373 130.478 21.0054 130.317 21.0054H126.307C126.146 21.0054 126.013 21.1373 126.013 21.299V25.8089H124.087C123.926 25.8089 123.796 25.9408 123.796 26.1027V29.5478C123.796 29.7095 123.926 29.8417 124.087 29.8417H126.013V38.7572C126.013 42.358 127.806 44.1848 131.345 44.1848C132.781 44.1848 133.973 43.8876 135.097 43.2498C135.19 43.2002 135.246 43.1011 135.246 42.9959V39.7139C135.246 39.6148 135.193 39.5188 135.106 39.4662C135.02 39.4105 134.911 39.4074 134.822 39.4538C134.051 39.8408 133.304 40.0204 132.468 40.0204C131.184 40.0204 130.608 39.4352 130.608 38.1286V29.8432H135.02C135.181 29.8432 135.311 29.7113 135.311 29.5494V26.1046C135.317 25.9426 135.187 25.8107 135.023 25.8107L135.02 25.8089V25.8089ZM150.389 25.8265V25.2726C150.389 23.6431 151.015 22.9164 152.414 22.9164C153.25 22.9164 153.922 23.0824 154.674 23.3332C154.767 23.3623 154.863 23.3477 154.938 23.2923C155.015 23.2369 155.058 23.148 155.058 23.0539V19.6759C155.058 19.5468 154.978 19.4326 154.851 19.3945C154.058 19.1582 153.043 18.9158 151.519 18.9158C147.819 18.9158 145.859 21.0008 145.859 24.9432V25.7915H143.934C143.773 25.7915 143.64 25.9234 143.64 26.0851V29.5478C143.64 29.7095 143.773 29.8417 143.934 29.8417H145.859V43.5903C145.859 43.7544 145.993 43.8845 146.154 43.8845H150.16C150.324 43.8845 150.454 43.7544 150.454 43.5903V29.8426H154.198L159.932 43.5903C159.282 45.0332 158.641 45.3211 157.767 45.3211C157.062 45.3211 156.315 45.1106 155.557 44.6926C155.486 44.6554 155.399 44.6492 155.325 44.6709C155.247 44.6988 155.182 44.7545 155.151 44.8288L153.792 47.8105C153.727 47.9529 153.783 48.117 153.919 48.1913C155.337 48.9591 156.616 49.2873 158.198 49.2873C161.158 49.2873 162.796 47.9064 164.235 44.1972L171.189 26.2278C171.227 26.1374 171.214 26.0352 171.159 25.955C171.106 25.8754 171.016 25.8274 170.92 25.8274H166.746C166.619 25.8274 166.508 25.907 166.468 26.0244L162.192 38.2339L157.51 26.0163C157.467 25.9027 157.359 25.8274 157.238 25.8274H150.389V25.8265V25.8265ZM141.478 25.8089H137.469C137.308 25.8089 137.175 25.9408 137.175 26.1027V43.5903C137.175 43.7544 137.308 43.8845 137.469 43.8845H141.478C141.639 43.8845 141.773 43.7544 141.773 43.5903V26.1039C141.773 25.942 141.642 25.8101 141.478 25.8101V25.8089ZM139.497 17.8458C137.908 17.8458 136.62 19.1313 136.62 20.7193C136.62 22.3083 137.908 23.5954 139.497 23.5954C141.085 23.5954 142.37 22.3083 142.37 20.7193C142.37 19.1316 141.082 17.8458 139.497 17.8458ZM174.614 31.4319C173.029 31.4319 171.793 30.1578 171.793 28.6106C171.793 27.0635 173.044 25.7748 174.629 25.7748C176.215 25.7748 177.45 27.0486 177.45 28.5945C177.45 30.1417 176.199 31.4319 174.614 31.4319ZM174.629 26.0553C173.183 26.0553 172.09 27.204 172.09 28.6106C172.09 30.0166 173.177 31.1498 174.614 31.1498C176.06 31.1498 177.153 30.0021 177.153 28.5945C177.153 27.1885 176.066 26.0553 174.629 26.0553V26.0553ZM175.255 28.8846L176.054 30.0017H175.379L174.66 28.9769H174.044V30.0017H173.481V27.0405H174.8C175.49 27.0405 175.942 27.3926 175.942 27.9852C175.945 28.4707 175.663 28.7673 175.258 28.8846H175.255ZM174.778 27.5486H174.044V28.4852H174.778C175.143 28.4852 175.363 28.306 175.363 28.0165C175.363 27.7118 175.143 27.5486 174.778 27.5486V27.5486Z"/></g></svg>

<svg xmlns="http://www.w3.org/2000/svg" fill="none" aria-hidden="true" viewBox="0 0 182 64"><path fill="#1ED760" d="M30.479 5.922C16.159 5.922 4.55 17.531 4.55 31.85c0 14.32 11.609 25.928 25.928 25.928 14.322 0 25.93-11.608 25.93-25.928 0-14.319-11.608-25.927-25.93-25.927v-.001Zm11.89 37.396a1.615 1.615 0 0 1-2.223.535c-6.088-3.718-13.751-4.56-22.777-2.498a1.617 1.617 0 0 1-.719-3.152c9.877-2.257 18.349-1.285 25.184 2.892a1.616 1.616 0 0 1 .535 2.223Zm3.174-7.06a2.022 2.022 0 0 1-2.78.666c-6.97-4.284-17.594-5.524-25.838-3.022a2.024 2.024 0 0 1-2.523-1.347 2.024 2.024 0 0 1 1.349-2.521c9.416-2.857 21.122-1.473 29.126 3.445a2.02 2.02 0 0 1 .666 2.78v-.001Zm.272-7.352c-8.356-4.963-22.144-5.42-30.122-2.998a2.425 2.425 0 1 1-1.408-4.641c9.159-2.78 24.384-2.243 34.005 3.468a2.422 2.422 0 0 1 .849 3.323 2.423 2.423 0 0 1-3.323.848Zm29.278.952c-4.477-1.068-5.273-1.817-5.273-3.392 0-1.487 1.4-2.488 3.483-2.488 2.019 0 4.02.76 6.118 2.325a.288.288 0 0 0 .22.054.289.289 0 0 0 .195-.12l2.186-3.081a.294.294 0 0 0-.056-.399c-2.498-2.004-5.31-2.979-8.598-2.979-4.833 0-8.21 2.901-8.21 7.052 0 4.45 2.913 6.026 7.947 7.243 4.282.987 5.007 1.813 5.007 3.29 0 1.639-1.462 2.657-3.815 2.657-2.613 0-4.746-.882-7.13-2.944a.29.29 0 0 0-.415.031l-2.453 2.916a.295.295 0 0 0 .028.41c2.775 2.476 6.187 3.783 9.871 3.783 5.208 0 8.573-2.846 8.573-7.252.01-3.717-2.216-5.776-7.669-7.102l-.01-.004Zm19.463-4.416c-2.258 0-4.11.89-5.639 2.712v-2.051a.293.293 0 0 0-.29-.294h-4.01a.293.293 0 0 0-.291.294V48.89c0 .161.13.294.29.294h4.01a.293.293 0 0 0 .291-.294v-7.192c1.53 1.712 3.381 2.55 5.639 2.55 4.195 0 8.443-3.229 8.443-9.402.006-6.175-4.242-9.405-8.44-9.405h-.003Zm3.78 9.405c0 3.142-1.935 5.337-4.71 5.337-2.74 0-4.808-2.294-4.808-5.337 0-3.044 2.069-5.337 4.809-5.337 2.728 0 4.709 2.244 4.709 5.337Zm15.546-9.405c-5.403 0-9.635 4.16-9.635 9.472 0 5.255 4.204 9.37 9.57 9.37 5.421 0 9.666-4.146 9.666-9.437 0-5.273-4.217-9.404-9.601-9.404Zm0 14.773c-2.873 0-5.041-2.31-5.041-5.37 0-3.074 2.093-5.305 4.976-5.305 2.892 0 5.072 2.31 5.072 5.373 0 3.073-2.106 5.303-5.007 5.303ZM135.02 25.81h-4.412V21.3a.292.292 0 0 0-.291-.294h-4.01a.295.295 0 0 0-.294.294v4.51h-1.926a.292.292 0 0 0-.291.294v3.445c0 .162.13.294.291.294h1.926v8.915c0 3.601 1.793 5.428 5.332 5.428 1.436 0 2.628-.297 3.752-.935a.287.287 0 0 0 .149-.254v-3.282c0-.1-.053-.195-.14-.248a.283.283 0 0 0-.284-.012 5.065 5.065 0 0 1-2.354.566c-1.284 0-1.86-.585-1.86-1.891v-8.286h4.412a.292.292 0 0 0 .291-.294v-3.444a.284.284 0 0 0-.288-.294l-.003-.002Zm15.369.017v-.553c0-1.63.626-2.357 2.025-2.357.836 0 1.508.166 2.26.417a.292.292 0 0 0 .384-.28v-3.377a.29.29 0 0 0-.207-.281c-.793-.237-1.808-.48-3.332-.48-3.7 0-5.659 2.086-5.659 6.028v.848h-1.926a.295.295 0 0 0-.294.294v3.463c0 .162.133.294.294.294h1.926V43.59c0 .164.133.294.294.294h4.006c.164 0 .294-.13.294-.294V29.843h3.744l5.734 13.747c-.65 1.443-1.291 1.731-2.164 1.731-.706 0-1.453-.21-2.211-.628a.318.318 0 0 0-.232-.022.291.291 0 0 0-.174.158l-1.359 2.981a.293.293 0 0 0 .127.381c1.418.768 2.697 1.096 4.279 1.096 2.96 0 4.598-1.38 6.037-5.09l6.955-17.97a.289.289 0 0 0-.031-.272.287.287 0 0 0-.239-.128h-4.174a.293.293 0 0 0-.278.197l-4.276 12.21-4.681-12.218a.293.293 0 0 0-.273-.189h-6.849Zm-8.911-.017h-4.009a.295.295 0 0 0-.294.294V43.59c0 .164.133.294.294.294h4.009c.161 0 .295-.13.295-.294V26.104a.293.293 0 0 0-.295-.294v-.001Zm-1.981-7.963a2.875 2.875 0 1 0-.004 5.75 2.875 2.875 0 0 0 .004-5.75Zm35.117 13.586a2.81 2.81 0 0 1-2.821-2.821 2.836 2.836 0 0 1 2.836-2.836 2.81 2.81 0 0 1 2.821 2.82 2.837 2.837 0 0 1-2.836 2.837Zm.015-5.377c-1.446 0-2.538 1.149-2.538 2.556 0 1.406 1.086 2.539 2.523 2.539 1.446 0 2.539-1.148 2.539-2.555 0-1.406-1.087-2.54-2.524-2.54Zm.626 2.83.799 1.117h-.675l-.719-1.025h-.616v1.025h-.563V27.04h1.319c.69 0 1.142.352 1.142.944.003.486-.278.782-.684.9h-.003Zm-.477-1.336h-.734v.936h.734c.365 0 .585-.179.585-.468 0-.305-.22-.468-.585-.468Z"/></svg>
